packages/symbols/svgs/solid/news-solid.svg

<svg width="16" height="16" viewBox="0 0 16 16" xmlns="http://www.w3.org/2000/svg"><g clip-path="url(#a)"><path d="M4 0v9H0v4c0 1.7 1.3 3 3 3h10c1.7 0 3-1.3 3-3V0H4Zm10 13c0 .6-.4 1-1 1H6V2h8v11Z"/><path d="M12 5H8v2h4V5Zm0 4H8v2h4V9Z"/></g><defs><clipPath id="a"><path fill="#fff" d="M0 0h16v16H0z"/></clipPath></defs></svg>

<svg width="16" height="16" viewBox="0 0 16 16" fill="none" xmlns="http://www.w3.org/2000/svg">
<g clip-path="url(#clip0_1279_4380)">
<path d="M4 0V9H0V13C0 14.7 1.3 16 3 16H13C14.7 16 16 14.7 16 13V0H4ZM14 13C14 13.6 13.6 14 13 14H6V2H14V13Z" fill="black"/>
<path d="M12 5H8V7H12V5Z" fill="black"/>
<path d="M12 9H8V11H12V9Z" fill="black"/>
</g>
<defs>
<clipPath id="clip0_1279_4380">
<rect width="16" height="16" fill="white"/>
</clipPath>
</defs>
</svg>
